X: 8930
T: Curraduff, The
R: jig
M: 6/8
K: Dmajor
FE|:DFA BAF|d3 BAF|DFA BAF|E3 GFE|
DFA BAF|d3 BAF|d3 BAF|E3 D2A:|
|:B2 d dcB|A3 dAF|E2 F GFE|F3 AF/G/A|
B2 d dcB|A3 dAF|E2 F GFE|1 D3 D2A:|2 D3 D3||

